!!!COM: Bach, Johann Sebastian
!!!CDT: 1685/3//-1750/7/28/
!!!OTL@@DE: O Haupt voll Blut und Wunden
!!!OTL@EN:  O sacred head now wounded
!!!OPR: Christmas Oratorio
!!!AGN: 4-Part Chorale
!!!SCT: BH 345
!!!SCT: BWV 248
**harm	**root	**kern	**kern	**kern	**kern
!	!	!bass	!tenor	!alto	!soprno
*	*Iorgan	*Iorgan	*Iorgan	*Iorgan	*Iorgan
*	*	*clefF4	*clefF4	*clefF4	*clefF4
*M4/4	*M4/4	*M4/4	*M4/4	*M4/4	*M4/4
*met(c)	*met(c)	*met(c)	*met(c)	*met(c)	*met(c)
*MM56	*MM56	*MM56	*MM56	*MM56	*MM56
*k[b-e-a-d-]	*k[b-e-a-d-]	*k[b-e-a-d-]	*k[b-e-a-d-]	*k[b-e-a-d-]	*k[b-e-a-d-]
*f:	*f:	*f:	*f:	*f:	*f:
*>[A,A,B]	*>[A,A,B]	*>[A,A,B]	*>[A,A,B]	*>[A,A,B]	*>[A,A,B]
*>A	*>A	*>A	*>A	*>A	*>A
V7	4EE	4C	4E	8c	4c
.	.	.	.	8B-	.
=1	=1	=1	=1	=1	=1
VI	4FF	4D-	4F	8A-	4f
.	.	.	.	8B-	.
-VII	4GG	4E-	4G	8B-	4e-
.	.	.	.	8c	.
VI7b	8FF	8F	8A-	8c	4d-
iio	8BB	8G	8B-	8B-	.
III	4CC	4A-	4E-	8B-	4c
.	.	.	.	8A-	.
=2	=2	=2	=2	=2	=2
iv	2DD	2D-	8F	4A-	2B-
.	.	.	8E	.	.
.	.	.	4F	8G	.
.	.	.	.	8F	.
V	4EE	4C;	4E;	4G;	4c;
V	4EE	4C	4E	4c	4g
=3	=3	=3	=3	=3	=3
i	4AA	8F	8F	4c	4a-
.	.	8E-	8G	.	.
VI	4FF	8D-	4A-	4f	4a-
.	.	8C	.	.	.
ii7D	4BB	8BB-	4d-	4f	8g
.	.	8GG	.	.	16a-
.	.	.	.	.	16b-
V7	4EE	4C	8c	4e	4g
.	.	.	8B-	.	.
=4	=4	=4	=4	=4	=4
i	2.AA	2.FF;	2.A-;	2.c;	2.f;
=:|!	=:|!	=:|!	=:|!	=:|!	=:|!
*>B	*>B	*>B	*>B	*>B	*>B
i	4AA	4F	4c	8f	4a-
.	.	.	.	8e-	.
=5	=5	=5	=5	=5	=5
iiob	4BB	4BB-	8B-	4d-	8g
.	.	.	8A-	.	8f
v	4EE	4C	4G	8c	4e-
.	.	.	.	8B-	.
VI	4FF	8D-	8F	4A-	4f
.	.	8C	8E-	.	.
iiob	4BB	4BB-	8D-	4d-	4g
.	.	.	8E-	.	.
=6	=6	=6	=6	=6	=6
VIb	4FF	8FF	4F	4d-	2a-
.	.	8GG	.	.	.
III	4CC	4AA-	8E-	8c	.
.	.	.	8D-	8B-	.
III	4CC	4AA-;	4E-;	4c;	4a-;
III	4CC	4AA-	4A-	4c	4e-
!!linebreak: 2
=7	=7	=7	=7	=7	=7
VI	4FF	8D-	8A-	4d-	4f
.	.	8C	8B-	.	.
V7b/IV	4AA	8BB-	4c	8G-	4e-
.	.	8AA	.	8F	.
iv	8DD	4BB-	8B-	8F	8d-
vii/IV	8CC#	.	8A	8E-	8c
iv	8DD	4BB-	8B-	8F	4d-
vii7Dc	8GG#	.	8E	8B-	.
=8	=8	=8	=8	=8	=8
I	2.AA	2.FF;	2.F;	2.A;	2.c;
V7b/-VII	4DD	4D	4F	4B-	4a-
=9	=9	=9	=9	=9	=9
-VII	4GG	4E-	8E-	4B-	8g
.	.	.	8F	.	8a-
-VII	4GG	8E-	4G	4e-	4b-
.	.	8D	.	.	.
IIIb	4CC	4.C	8A-	8e-	4a-
.	.	.	8B-	8d	.
V	4EE	.	4c	4e-	4g
.	.	8BB-	.	.	.
=10	=10	=10	=10	=10	=10
i7	4AA	8AA-	4c	4e-	2f
.	.	8FF	.	.	.
V/-VII	4DD	4BB-	4B-	4d	.
-VII	4GG	4EE-;	4B-;	4e-;	4g;
III	4CC	8AA-	4A-	4e-	4c
.	.	8GG	.	.	.
=11	=11	=11	=11	=11	=11
VIb	8FF	8FF	8A-	8A-	4d-
iio	8BB	8GG	8G	8B-	.
ib	4AA	[4AA-	8G	4A-	4c
.	.	.	8F	.	.
ii7D	4BB	8AA-]	4F	4D-	4B-
.	.	[8GG	.	.	.
-VIIb	8GG	8GG]	8E-	4B-	8e-
ivc	8DD	8FF	8F	.	8d-
=12	=12	=12	=12	=12	=12
V7b	4EE	4EE	4G	4B-	2.c;
i	4AA	4FF	4F	4A-	.
V	4EE	4C;	4E;	4G;	.
==	==	==	==	==	==
*-	*-	*-	*-	*-	*-
!!chor2scor: -l 2 -s 0.6 -o %b.pmx
!!!YEC: Copyright 2003 by Craig Stuart Sapp
!!!license: GNU General Public License (http://www.gnu.org/copyleft/gpl.html)
!!!SMA: 371 Bach Chorales, edited by Ludwig Erk, C.F. Peters
!!!PDT: 1850, 1865
!!!ONB: Harmony and Root analysis done manually by Craig Sapp
